resources/haticons/SVG/screen_lock_portrait.svg

<!-- Generated by IcoMoon.io -->
<svg version="1.1" xmlns="http://www.w3.org/2000/svg" width="24" height="24" viewBox="0 0 24 24">
<title>screen_lock_portrait</title>
<path d="M17.016 18.984v-13.969h-10.031v13.969h10.031zM17.016 0.984q0.797 0 1.383 0.609t0.586 1.406v18q0 0.797-0.586 1.406t-1.383 0.609h-10.031q-0.797 0-1.383-0.609t-0.586-1.406v-18q0-0.797 0.586-1.406t1.383-0.609h10.031zM10.781 9.984v1.031h2.438v-1.031q0-0.469-0.352-0.82t-0.867-0.352-0.867 0.352-0.352 0.82zM9.984 15.984q-0.422 0-0.703-0.281t-0.281-0.703v-3q0-0.422 0.281-0.703t0.703-0.281v-1.031q0-0.844 0.586-1.406t1.43-0.563 1.43 0.563 0.586 1.406v1.031q0.422 0 0.703 0.281t0.281 0.703v3q0 0.422-0.281 0.703t-0.703 0.281h-4.031z"></path>
</svg>

<svg xmlns="http://www.w3.org/2000/svg" width="24" height="24"><path d="M17.016 18.984V5.015H6.985v13.969h10.031zm0-18q.797 0 1.383.609t.586 1.406v18q0 .797-.586 1.406t-1.383.609H6.985q-.797 0-1.383-.609t-.586-1.406v-18q0-.797.586-1.406T6.985.984h10.031zm-6.235 9v1.031h2.438V9.984q0-.469-.352-.82T12 8.812t-.867.352-.352.82zm-.797 6q-.422 0-.703-.281T9 15v-3q0-.422.281-.703t.703-.281V9.985q0-.844.586-1.406T12 8.016t1.43.563.586 1.406v1.031q.422 0 .703.281T15 12v3q0 .422-.281.703t-.703.281H9.985z"/></svg>
